X: 29611
T: North Downs Way, The
R: barndance
M: 4/4
K: Cmajor
GF|:E2DC D2GF|EFDE C2 EG|AGAB cGGF|EGDC D2GF|
E2DC D2GF|EFDE C2 EG|AGAB cGGF|1 EGD2 D2 GF:|2 EGD2 D2 (3EFG||
|:A2FA e2dc|BcdB G2B2|AGAB cBcd|edef g2 (3efg|
f2 de fedc|BcdB G2B2|AGAB cGGF|1 EGD2 D4:|2 EGD2 D2 GF||

